X:34
T:T021B- Good Morrow to Your Night Cap (in Poor Soldier)
Q:1/4=30
L:1/4
M:2/4
K:Bm
F/|B/c/d/B/|FF/^G/|A/B/ c/d/|ed/c/|B/c/d/B/|FF/ g/|\
f/e/d/c/|BB::c|d/d/d/d/|e/e/e/f/|d/d/c/d/|e/c/A/c/|\
d/d/d/d/|e/e/e/g/|f/e/d/c/|BB|]

